fs/arrow_hook_up_left_20_filled.svg

<svg viewBox="0 0 20 20" fill="none" xmlns="http://www.w3.org/2000/svg" height="1em" width="1em">
  <path d="M6 15.25C6 15.6642 6.33579 16 6.75 16H11.25C12.8365 16 13.9458 15.3788 14.78 14.4118C15.6009 13.4603 16 12.2164 16 11C16 9.78364 15.7009 8.53973 14.88 7.5882C14.0458 6.62123 12.8365 6 11.25 6H6.56066L8.78033 3.78033C9.07322 3.48744 9.07322 3.01256 8.78033 2.71967C8.48744 2.42678 8.01256 2.42678 7.71967 2.71967L4.21967 6.21967C4.07561 6.36373 3.99636 6.56019 4.00013 6.76388C4.0039 6.96757 4.09037 7.16097 4.23966 7.29959L7.73966 10.5496C8.0432 10.8314 8.51774 10.8139 8.7996 10.5103C9.08145 10.2068 9.06387 9.73226 8.76034 9.4504L6.6599 7.5H11.25C12.4135 7.5 13.1092 7.94127 13.65 8.56805C14.2041 9.21027 14.5 10.0914 14.5 11C14.5 11.9086 14.2041 12.7897 13.65 13.432C13.1092 14.0587 12.4135 14.5 11.25 14.5H6.75C6.33579 14.5 6 14.8358 6 15.25Z" fill="#212121"/>
</svg>

<svg viewBox="0 0 20 20" fill="none" xmlns="http://www.w3.org/2000/svg" height="1em" width="1em">
  <path d="M6 15.25c0 .414.336.75.75.75h4.5c1.586 0 2.696-.621 3.53-1.588C15.6 13.46 16 12.216 16 11c0-1.216-.3-2.46-1.12-3.412C14.046 6.621 12.836 6 11.25 6H6.56l2.22-2.22a.75.75 0 0 0-1.06-1.06l-3.5 3.5a.75.75 0 0 0 .02 1.08l3.5 3.25a.75.75 0 0 0 1.02-1.1L6.66 7.5h4.59c1.164 0 1.86.441 2.4 1.068.554.642.85 1.523.85 2.432s-.296 1.79-.85 2.432c-.54.627-1.236 1.068-2.4 1.068h-4.5a.75.75 0 0 0-.75.75Z" fill="#212121"/>
</svg>
